X:1
T:Drink to Me Only with Thine Eyes
T:Song to Celia
R:song
C:traditional
S:http://www.mucl.de/Home/mdoering/konzertina/all/music/dt-songs.abc
H:- the origin of the tune is unknown, but traces back to at least 1770
N:Lyrics by Ben Jonson (1616)
O:Irish
Z:id:Eckert-song-106
M:3/4
L:1/4
Q:1/4=100
W:Drink to me only with thine eyes,
W:And I will pledge with mine;
W:Or leave a kiss within the cup,
W:And I'll not ask for wine.
W:The thirst that from the soul doth rise,
W:Doth crave a drink divine;
W:But might I of Jove's nectar sup,
W:I would not change for thine.
W:
W:I sent thee late a rosy wreath,
W:Not so much honoring thee
W:As giving it a hope that there
W:It could not withered be;
W:But thou there on did't only breathe
W:And sent'st back to me,
W:Since when it grows and smells, I swear,
W:Not of itself, but thee.
K:C
|: E E E | F2 F | G- F E | D- E F | G- C F | E2 D | C6- |1 C2 z :|
| C2 G | G- E G | c2 G | G- E G | G2 G | A2 G | G- F E | E6- | D2- D |
| E E E | F2 F | G- F E | D- E F | G- C F | E2 D | C6- | C z2 |]
